public/illustrations/_grapes.svg

<svg width="220" height="251" viewBox="0 0 220 251" fill="none" xmlns="http://www.w3.org/2000/svg">
<path d="M100.331 57.2503C101.747 61.9226 104.72 66.0286 108.968 68.7187C111.658 70.5594 114.348 72.1168 117.18 73.6742C118.171 74.2406 119.304 74.5238 120.436 74.5238C128.931 74.099 136.011 77.6387 142.099 83.0189C147.055 87.1249 151.161 92.222 153.992 98.0271C154.559 99.0182 155.267 99.8677 156.116 100.576C156.966 101.284 158.098 101.708 159.231 101.85C165.461 103.549 171.691 105.814 177.779 108.08C181.602 109.495 185.283 111.336 188.964 113.177C189.814 113.46 190.522 114.026 191.088 114.876C191.654 115.725 191.938 116.433 192.079 117.424C192.079 118.557 192.079 119.548 191.513 120.539C190.947 121.53 190.239 122.238 189.247 122.805C186.699 124.504 184.292 126.344 181.177 128.468C182.876 128.893 183.584 129.318 184.434 129.459C191.513 130.45 198.026 133.565 203.264 138.379C208.22 142.768 212.326 148.148 215.441 154.095C218.414 160.325 219.972 167.121 219.83 173.917C219.83 174.908 219.83 175.899 219.547 177.032C218.414 182.554 214.308 184.536 209.211 181.988C206.238 180.43 203.264 179.014 200.15 177.74C200.857 179.722 201.848 181.421 203.264 182.837C206.096 186.235 209.07 189.775 212.043 193.031C215.016 196.288 215.299 199.969 213.317 204.075C208.928 212.429 203.689 220.216 197.743 227.437C193.212 233.1 187.973 238.339 183.018 243.719C181.743 245.135 180.328 246.551 179.053 247.967C178.487 248.675 177.779 249.241 176.929 249.666C176.08 250.09 175.23 250.232 174.239 250.09C173.106 250.09 171.974 250.09 170.841 249.807C159.939 246.975 149.462 243.577 139.975 237.348C130.914 231.543 122.419 224.746 115.056 216.818C112.224 213.844 110.525 210.588 110.95 206.482L112.649 184.678C110.808 185.952 108.968 187.226 107.269 188.642C105.711 189.775 104.295 191.049 102.738 192.182C97.0744 196.288 93.5348 195.721 89.2872 190.058L85.7475 193.031C86.3138 195.58 87.0219 197.987 87.3051 200.535C88.2962 205.491 87.5882 210.588 85.4644 215.119C82.0663 221.49 76.6861 224.605 69.6068 225.03H64.2264C63.8016 226.587 63.66 228.145 63.0936 229.702C62.1025 233.1 59.979 235.932 57.0057 237.914C54.0324 239.896 50.6343 240.746 47.0946 240.321C43.6965 239.755 40.4398 238.197 38.0329 235.649C35.6259 233.1 34.0687 229.844 33.6439 226.445C33.5023 224.605 33.5023 222.906 33.6439 221.065C33.9271 219.225 34.3517 217.384 34.918 215.543C30.9536 214.128 27.4138 211.721 24.8653 208.464C22.1751 205.208 20.6178 201.243 20.0514 197.137C18.6356 188.5 21.4675 180.855 27.2725 174.342C26.7062 173.917 26.1397 173.492 25.7149 173.068C23.1664 171.369 20.9008 169.103 19.2018 166.555C17.5028 164.006 16.3702 161.033 15.8039 158.059C15.6623 156.927 15.2376 155.936 14.5297 154.945C13.8218 154.095 12.9722 153.246 11.9811 152.821C8.72459 150.98 5.89279 148.432 3.76899 145.317C1.64519 142.202 0.51236 138.521 0.0876001 134.839C-0.33716 130.309 0.79581 125.636 3.20278 121.813C5.60975 117.849 9.14914 114.876 13.5383 113.177C13.8215 113.177 13.9633 112.894 14.1049 112.752C15.096 89.5319 36.6171 79.0545 52.6164 87.9744C53.0411 87.1249 53.466 86.1338 53.7491 85.2843C57.0056 76.7892 62.9523 71.2673 72.1554 69.4267C76.6861 68.5771 80.792 69.5683 85.0396 71.6921C89.8535 73.9574 93.6765 77.9218 95.8003 82.7357C95.9419 83.1605 96.225 83.5853 96.5082 84.01L105.003 77.4971C97.6409 73.2495 92.2607 66.3118 89.8537 58.0998C73.2881 58.383 60.8285 51.3037 52.0502 37.5698C48.7937 38.2778 45.5371 38.8441 42.4222 39.552C38.8825 40.26 35.2011 40.26 31.6615 39.552C29.2545 39.1273 26.8477 38.9857 24.4408 38.7025C23.1665 38.7025 22.0337 38.1362 21.1842 37.1451C20.3347 36.154 19.9099 35.0213 19.7683 33.8886C19.7683 32.6143 20.193 31.34 21.0425 30.3489C21.892 29.3578 23.1665 28.7915 24.4408 28.6499C26.423 28.6499 28.2634 28.6499 30.2456 29.0747C36.0507 30.3489 42.139 29.9242 47.6608 27.8004C47.6608 26.5261 47.6608 25.2518 47.236 24.1192C46.3865 19.5884 46.9528 14.7745 48.935 10.5269C50.0677 7.97835 51.6253 5.5714 53.7491 3.58919C55.3066 1.89016 57.4303 0.615897 59.6957 0.191139C61.9611 -0.233619 64.3681 0.0495618 66.4919 1.04066C71.0227 3.02287 73.2879 6.84569 73.7126 11.6596C74.279 17.6062 71.8721 22.4201 68.1909 26.8093C66.2087 29.0747 63.9433 30.9153 61.8195 33.0391C64.368 39.9768 76.5446 48.3304 87.022 47.6224C87.022 43.7996 87.4467 39.9768 88.013 36.154C88.5794 33.0391 89.8536 30.0658 91.8358 27.6588C93.818 25.1103 96.2249 23.128 99.1982 21.8538C108.543 17.0399 119.445 22.7033 123.41 28.7915C125.958 32.4727 125.817 36.5787 124.401 40.5431C122.985 44.366 120.436 47.4809 117.038 49.7462C113.074 52.4364 108.685 54.4185 104.154 55.6928L100.19 56.8255L100.331 57.2503ZM98.632 182.129C99.7647 181.421 100.473 180.996 101.039 180.572C104.437 178.023 107.694 175.475 111.092 172.926C112.649 171.652 114.49 170.519 116.189 169.67C117.038 169.245 117.888 168.962 118.879 168.962C119.87 168.962 120.719 169.245 121.569 169.67C122.418 170.094 123.126 170.802 123.693 171.51C124.259 172.36 124.542 173.209 124.684 174.059C124.684 175.333 124.684 176.607 124.542 177.882C123.551 185.386 122.418 192.89 121.569 200.394C121.144 202.801 121.427 205.349 122.277 207.615C123.126 209.88 124.542 212.004 126.383 213.561C135.445 222.198 145.78 229.277 157.107 234.516C160.647 236.215 164.47 237.348 168.434 237.914C166.877 233.1 165.461 228.852 164.045 224.605C161.638 217.242 158.806 209.88 156.682 202.376C152.718 188.359 150.028 173.917 148.329 159.334C147.763 153.246 146.771 147.157 146.63 140.928C146.347 132.999 146.63 125.07 146.63 117V112.894C139.975 114.168 123.835 124.22 119.304 129.742C121.003 130.025 122.843 130.167 124.542 130.592C125.675 130.733 126.666 131.3 127.374 132.149C128.082 132.999 128.648 133.99 128.79 135.123C128.79 136.114 128.79 137.246 128.223 138.096C127.799 139.087 126.949 139.795 126.1 140.22C125.392 140.786 124.542 141.211 123.693 141.494C121.994 142.343 120.295 143.193 118.596 144.042C111.517 147.724 105.428 152.679 102.596 160.466C100.897 164.997 99.4816 169.67 98.3489 174.483C97.7825 176.607 98.3488 179.014 98.632 181.704V182.129ZM157.39 111.902C157.107 112.327 156.966 112.752 156.824 113.177C156.824 114.309 156.541 115.442 156.541 116.575C156.541 129.318 155.975 141.919 157.815 154.661C159.231 164.856 160.364 175.05 162.629 184.961C165.036 195.297 167.301 205.632 171.124 215.685C173.248 221.065 174.947 226.587 176.788 231.967C177.071 232.675 177.354 233.383 177.779 234.374C188.256 224.039 197.176 212.145 204.256 199.261C203.123 197.987 202.273 196.996 201.565 196.005C196.751 190.199 191.938 184.253 187.124 178.448C186.274 177.598 185.708 176.466 185.283 175.333C184.858 174.2 184.858 172.926 185 171.652C185 170.377 185.708 169.103 186.699 168.254C187.69 167.404 188.964 166.979 190.238 166.979C191.654 166.979 193.07 166.979 194.486 166.838C198.167 166.413 201.99 166.838 205.388 168.395C206.521 168.82 207.654 169.103 209.353 169.67C209.069 167.829 209.069 166.413 208.645 165.139C206.521 156.219 200.999 148.29 193.353 143.193C191.23 141.636 188.681 140.361 186.133 139.795C183.442 139.229 180.752 139.087 178.062 139.512C175.514 139.936 172.965 140.078 170.416 139.795C165.461 139.512 162.629 135.406 163.904 130.592C164.753 127.335 166.877 124.504 169.85 122.805L176.505 118.557C170.275 115.725 164.187 112.752 157.39 111.478V111.902ZM103.588 92.6468C106.278 93.3547 108.685 94.629 110.809 96.328C112.932 98.027 114.631 100.151 115.905 102.558C118.737 107.655 117.18 113.035 115.905 118.415C125.817 112.61 134.312 105.39 145.78 102.841C142.524 97.1775 138.135 92.3636 132.896 88.6824C130.347 86.7002 127.232 85.4259 124.118 85.0011C121.003 84.5764 117.605 84.7179 114.631 85.7091C110.242 86.7002 106.419 89.2487 103.729 92.7884L103.588 92.6468ZM40.8646 95.1953C33.9269 94.7706 26.1397 101.142 25.007 109.637C23.8743 119.407 32.5111 127.052 41.7143 124.079C44.8292 123.229 47.6607 121.389 49.6429 118.982C51.7667 116.575 53.0411 113.46 53.3243 110.203C54.5986 101.284 48.3689 94.7706 40.7232 95.1953H40.8646ZM38.316 166.979C40.4398 166.555 42.4221 165.847 44.4043 164.997C46.1033 164.006 47.6609 162.59 48.7936 160.891C49.9263 159.192 50.7757 157.352 51.2005 155.228C51.6253 153.246 51.4837 151.122 51.2005 149.14C50.7757 147.157 49.7846 145.317 48.6519 143.618C44.829 138.804 36.7587 137.53 32.0863 141.352C28.5466 144.184 25.8565 147.865 25.7149 152.679C25.5733 161.882 32.3695 167.121 38.4577 166.979H38.316ZM75.1285 106.381C77.3939 106.381 79.6595 105.673 81.3585 104.398C83.4823 102.983 85.1814 101.142 86.314 98.8765C87.4467 96.6112 87.8714 94.0626 87.5882 91.5141C86.7387 81.7447 79.0929 76.7892 70.173 81.0367C63.2352 84.4348 60.5453 94.4874 64.7929 101C65.9256 102.699 67.3413 104.115 69.1819 105.106C71.0225 106.097 73.0047 106.522 75.1285 106.381ZM53.8905 189.916C53.4657 188.076 52.8995 186.094 52.1915 184.394C51.4836 182.979 50.6341 181.563 49.3598 180.572C48.0855 179.581 46.6697 178.873 45.1122 178.448C43.5548 178.023 41.8559 178.165 40.2984 178.448C38.7409 178.873 37.3251 179.581 36.0508 180.713C33.2191 182.979 31.3782 185.952 30.5287 189.492C29.6792 192.89 29.9626 196.571 31.5201 199.827C32.228 201.385 33.2189 202.801 34.4932 203.933C35.7675 205.066 37.3249 205.774 39.0239 206.199C40.723 206.482 42.4221 206.482 44.1212 206.057C45.8202 205.632 47.2362 204.641 48.5105 203.509C52.3333 200.252 53.8906 196.005 54.0322 190.058L53.8905 189.916ZM87.8713 132.716C87.8713 131.017 87.7297 129.176 87.1634 127.619C86.597 126.061 85.606 124.504 84.4733 123.229C77.5356 115.867 68.191 117.849 64.3681 126.769C63.0938 129.601 63.0939 132.857 64.085 135.83C66.492 143.335 73.8544 146.733 79.2347 145.034C81.7833 144.042 84.0487 142.485 85.6061 140.22C87.1636 137.954 88.0132 135.406 88.1547 132.716H87.8713ZM61.3947 169.953C61.3947 176.466 63.8018 181.138 68.6157 184.394C75.2703 188.784 81.7832 185.244 83.7654 178.731C84.6149 175.475 84.4733 171.935 83.3406 168.678C82.0663 165.422 79.9426 162.732 77.1109 160.891C72.4386 158.059 65.5007 158.343 62.5274 165.422C62.1027 166.838 61.8196 168.254 61.5364 169.811L61.3947 169.953ZM59.554 207.19C60.6867 209.03 61.8194 210.729 63.0936 212.428C63.9431 213.42 64.9345 214.128 66.2088 214.552C72.297 216.393 77.3941 212.712 77.8188 206.34C77.9604 203.225 77.3939 200.111 76.2613 197.279L64.3681 194.447L59.6957 207.19H59.554ZM98.0658 47.0561C103.446 46.2066 108.543 43.9412 112.791 40.4015C113.782 39.552 114.348 38.4194 114.631 37.1451C114.915 36.154 114.631 35.1629 114.348 34.3134C112.083 30.7737 105.711 29.641 102.313 32.048C98.2074 34.8797 96.225 41.3927 98.2072 46.9145L98.0658 47.0561ZM107.127 110.062C107.977 106.947 103.163 102.275 99.623 102.416C97.4992 102.416 91.8358 107.23 91.8358 109.354C91.8358 112.752 96.225 118.132 100.048 118.274C103.588 118.274 107.127 114.309 107.269 110.062H107.127ZM23.7328 133.14C21.8922 130.309 20.0514 127.477 18.2108 124.787C18.0692 124.504 17.786 124.22 17.5028 123.937C17.2196 123.796 16.9365 123.654 16.5118 123.513H15.379C15.0958 123.513 14.8129 123.796 14.5297 124.079C13.6802 124.787 12.9723 125.495 12.4059 126.344C11.4148 127.76 10.8484 129.176 10.5652 130.875C10.282 132.432 10.282 134.131 10.5652 135.689C10.8484 137.246 11.6978 138.804 12.5473 140.078C13.5384 141.352 14.8128 142.485 16.2287 143.335L23.5911 132.857L23.7328 133.14ZM43.555 223.897C43.8381 225.03 44.1212 226.162 44.546 227.295C44.8292 228.286 45.5372 229.136 46.3867 229.702C47.2362 230.268 48.2273 230.552 49.2184 230.552C50.2095 230.552 51.2005 230.127 51.9084 229.419C52.6164 228.711 53.1828 227.861 53.466 226.87C53.8908 225.738 54.0321 224.605 53.8905 223.472C53.8905 222.34 53.3244 221.207 52.7581 220.216C50.4927 216.676 46.6698 216.676 44.546 220.357C44.1212 221.49 43.6964 222.623 43.4132 223.897H43.555ZM57.9967 23.2696C60.6869 21.2874 62.6691 18.4557 63.6602 15.3408C64.2265 13.5002 64.2264 11.8012 62.1026 10.9517C60.1204 12.3675 58.7047 14.2082 57.9967 16.4735C57.2888 18.7389 57.2888 21.1458 57.9967 23.2696Z" fill="#102185"/>
</svg>

<svg xmlns="http://www.w3.org/2000/svg" width="220" height="251" fill="none" viewBox="0 0 220 251"><path fill="#102185" d="M100.331 57.25c1.416 4.673 4.389 8.779 8.637 11.469 2.69 1.84 5.38 3.398 8.212 4.955.991.567 2.124.85 3.256.85 8.495-.425 15.575 3.115 21.663 8.495 4.956 4.106 9.062 9.203 11.893 15.008a9.3 9.3 0 0 0 2.124 2.549c.85.708 1.982 1.132 3.115 1.274 6.23 1.699 12.46 3.964 18.548 6.23 3.823 1.415 7.504 3.256 11.185 5.097q1.275.424 2.124 1.699c.566.849.85 1.557.991 2.548 0 1.133 0 2.124-.566 3.115a5.8 5.8 0 0 1-2.266 2.266c-2.548 1.699-4.955 3.539-8.07 5.663 1.699.425 2.407.85 3.257.991 7.079.991 13.592 4.106 18.83 8.92 4.956 4.389 9.062 9.769 12.177 15.716 2.973 6.23 4.531 13.026 4.389 19.822 0 .991 0 1.982-.283 3.115-1.133 5.522-5.239 7.504-10.336 4.956-2.973-1.558-5.947-2.974-9.061-4.248.707 1.982 1.698 3.681 3.114 5.097 2.832 3.398 5.806 6.938 8.779 10.194s3.256 6.938 1.274 11.044c-4.389 8.354-9.628 16.141-15.574 23.362-4.531 5.663-9.77 10.902-14.725 16.282-1.275 1.416-2.69 2.832-3.965 4.248a6.3 6.3 0 0 1-2.124 1.699c-.849.424-1.699.566-2.69.424-1.133 0-2.265 0-3.398-.283-10.902-2.832-21.379-6.23-30.866-12.459-9.061-5.805-17.556-12.602-24.919-20.53-2.832-2.974-4.531-6.23-4.106-10.336l1.699-21.804c-1.841 1.274-3.681 2.548-5.38 3.964-1.558 1.133-2.974 2.407-4.531 3.54-5.664 4.106-9.203 3.539-13.45-2.124l-3.54 2.973c.566 2.549 1.274 4.956 1.557 7.504.991 4.956.283 10.053-1.84 14.584-3.399 6.371-8.779 9.486-15.858 9.911h-5.38c-.425 1.557-.567 3.115-1.133 4.672-.992 3.398-3.115 6.23-6.088 8.212-2.974 1.982-6.372 2.832-9.911 2.407-3.398-.566-6.655-2.124-9.062-4.672-2.407-2.549-3.964-5.805-4.39-9.204a34 34 0 0 1 0-5.38q.426-2.76 1.275-5.522c-3.964-1.415-7.504-3.822-10.053-7.079-2.69-3.256-4.247-7.221-4.814-11.327-1.415-8.637 1.417-16.282 7.222-22.795-.567-.425-1.133-.85-1.558-1.274a23.8 23.8 0 0 1-6.513-6.513c-1.7-2.549-2.832-5.522-3.398-8.496-.142-1.132-.566-2.123-1.274-3.114-.708-.85-1.558-1.699-2.549-2.124-3.256-1.841-6.088-4.389-8.212-7.504S.512 138.521.088 134.839c-.425-4.53.708-9.203 3.115-13.026 2.407-3.964 5.946-6.937 10.335-8.636.284 0 .425-.283.567-.425.991-23.22 22.512-33.697 38.511-24.778.425-.85.85-1.84 1.133-2.69 3.257-8.495 9.203-14.017 18.406-15.857 4.531-.85 8.637.141 12.885 2.265A22.08 22.08 0 0 1 95.8 82.736c.142.424.425.85.708 1.274l8.495-6.513C97.641 73.25 92.261 66.312 89.853 58.1c-16.565.283-29.024-6.796-37.803-20.53-3.256.708-6.513 1.274-9.628 1.982-3.54.708-7.22.708-10.76 0-2.407-.425-4.814-.566-7.221-.85-1.274 0-2.407-.566-3.257-1.557s-1.274-2.124-1.416-3.256c0-1.275.425-2.549 1.274-3.54.85-.991 2.124-1.558 3.399-1.7 1.982 0 3.822 0 5.805.426 5.805 1.274 11.893.85 17.415-1.275 0-1.274 0-2.548-.425-3.68-.85-4.532-.283-9.346 1.699-13.593 1.133-2.549 2.69-4.956 4.814-6.938C55.307 1.89 57.43.616 59.696.191a11.26 11.26 0 0 1 6.796.85c4.53 1.982 6.796 5.805 7.22 10.619.567 5.946-1.84 10.76-5.521 15.15-1.982 2.265-4.248 4.105-6.372 6.23 2.549 6.937 14.726 15.29 25.203 14.582 0-3.822.425-7.645.991-11.468.566-3.115 1.84-6.088 3.823-8.495 1.982-2.549 4.389-4.531 7.362-5.805 9.345-4.814 20.247.85 24.212 6.938 2.548 3.68 2.407 7.787.991 11.751-1.416 3.823-3.965 6.938-7.363 9.203-3.964 2.69-8.353 4.672-12.884 5.947l-3.964 1.133zM98.632 182.13c1.133-.708 1.841-1.133 2.407-1.557 3.398-2.549 6.655-5.097 10.053-7.646 1.557-1.274 3.398-2.407 5.097-3.256.849-.425 1.699-.708 2.69-.708s1.84.283 2.69.708c.849.424 1.557 1.132 2.124 1.84.566.85.849 1.699.991 2.549 0 1.274 0 2.548-.142 3.823-.991 7.504-2.124 15.008-2.973 22.512-.425 2.407-.142 4.955.708 7.221.849 2.265 2.265 4.389 4.106 5.946 9.062 8.637 19.397 15.716 30.724 20.955 3.54 1.699 7.363 2.832 11.327 3.398a1498 1498 0 0 0-4.389-13.309c-2.407-7.363-5.239-14.725-7.363-22.229-3.964-14.017-6.654-28.459-8.353-43.042-.566-6.088-1.558-12.177-1.699-18.406-.283-7.929 0-15.858 0-23.928v-4.106c-6.655 1.274-22.795 11.326-27.326 16.848 1.699.283 3.539.425 5.238.85a4.37 4.37 0 0 1 2.832 1.557c.708.85 1.274 1.841 1.416 2.974 0 .991 0 2.123-.567 2.973-.424.991-1.274 1.699-2.123 2.124-.708.566-1.558.991-2.407 1.274l-5.097 2.548c-7.079 3.682-13.168 8.637-16 16.424a115 115 0 0 0-4.247 14.017c-.567 2.124 0 4.531.283 7.221zm58.758-70.227c-.283.425-.424.85-.566 1.275 0 1.132-.283 2.265-.283 3.398 0 12.743-.566 25.344 1.274 38.086 1.416 10.195 2.549 20.389 4.814 30.3 2.407 10.336 4.672 20.671 8.495 30.724 2.124 5.38 3.823 10.902 5.664 16.282.283.708.566 1.416.991 2.407 10.477-10.335 19.397-22.229 26.477-35.113-1.133-1.274-1.983-2.265-2.691-3.256-4.814-5.806-9.627-11.752-14.441-17.557-.85-.85-1.416-1.982-1.841-3.115s-.425-2.407-.283-3.681c0-1.275.708-2.549 1.699-3.398s2.265-1.275 3.539-1.275c1.416 0 2.832 0 4.248-.141 3.681-.425 7.504 0 10.902 1.557 1.133.425 2.266.708 3.965 1.275-.284-1.841-.284-3.257-.708-4.531-2.124-8.92-7.646-16.849-15.292-21.946-2.123-1.557-4.672-2.832-7.22-3.398-2.691-.566-5.381-.708-8.071-.283-2.548.424-5.097.566-7.646.283-4.955-.283-7.787-4.389-6.512-9.203a12.64 12.64 0 0 1 5.946-7.787l6.655-4.248c-6.23-2.832-12.318-5.805-19.115-7.079zm-53.802-19.255c2.69.708 5.097 1.982 7.221 3.681s3.822 3.823 5.096 6.23c2.832 5.097 1.275 10.477 0 15.857 9.912-5.805 18.407-13.025 29.875-15.574-3.256-5.663-7.645-10.477-12.884-14.159-2.549-1.982-5.664-3.256-8.778-3.68-3.115-.426-6.513-.284-9.487.707-4.389.991-8.212 3.54-10.902 7.08zm-62.723 2.548c-6.938-.424-14.725 5.947-15.858 14.442-1.133 9.77 7.504 17.415 16.707 14.442 3.115-.85 5.947-2.69 7.929-5.097 2.124-2.407 3.398-5.522 3.681-8.779 1.275-8.919-4.955-15.432-12.6-15.008zm-2.549 71.784c2.124-.424 4.106-1.132 6.088-1.982 1.7-.991 3.257-2.407 4.39-4.106s1.982-3.539 2.407-5.663c.424-1.982.283-4.106 0-6.088-.425-1.983-1.416-3.823-2.55-5.522-3.822-4.814-11.892-6.088-16.565-2.266-3.54 2.832-6.23 6.513-6.371 11.327-.142 9.203 6.655 14.442 12.743 14.3zm36.813-60.598c2.265 0 4.53-.708 6.23-1.983 2.123-1.415 3.822-3.256 4.955-5.522 1.133-2.265 1.557-4.813 1.274-7.362-.85-9.77-8.495-14.725-17.415-10.477-6.938 3.398-9.628 13.45-5.38 19.963 1.133 1.699 2.548 3.115 4.389 4.106q2.76 1.487 5.947 1.275M53.89 189.916c-.424-1.84-.99-3.822-1.699-5.522-.707-1.415-1.557-2.831-2.831-3.822a12 12 0 0 0-4.248-2.124c-1.557-.425-3.256-.283-4.814 0-1.557.425-2.973 1.133-4.247 2.265-2.832 2.266-4.673 5.239-5.522 8.779-.85 3.398-.566 7.079.991 10.335.708 1.558 1.699 2.974 2.973 4.106 1.274 1.133 2.832 1.841 4.53 2.266 1.7.283 3.4.283 5.098-.142 1.7-.425 3.115-1.416 4.39-2.548 3.822-3.257 5.38-7.504 5.521-13.451zm33.981-57.2c0-1.699-.141-3.54-.708-5.097-.566-1.558-1.557-3.115-2.69-4.39-6.937-7.362-16.282-5.38-20.105 3.54-1.274 2.832-1.274 6.088-.283 9.061 2.407 7.505 9.77 10.903 15.15 9.204 2.548-.992 4.814-2.549 6.371-4.814a14.45 14.45 0 0 0 2.549-7.504zm-26.476 37.237c0 6.513 2.407 11.185 7.22 14.441 6.655 4.39 13.168.85 15.15-5.663.85-3.256.708-6.796-.424-10.053-1.275-3.256-3.398-5.946-6.23-7.787-4.672-2.832-11.61-2.548-14.584 4.531-.424 1.416-.707 2.832-.99 4.389zm-1.841 37.237a68 68 0 0 0 3.54 5.238c.85.992 1.84 1.7 3.115 2.124 6.088 1.841 11.185-1.84 11.61-8.212.141-3.115-.425-6.229-1.558-9.061l-11.893-2.832-4.672 12.743zM98.066 47.056a30.4 30.4 0 0 0 14.725-6.654c.991-.85 1.557-1.983 1.84-3.257.284-.991 0-1.982-.283-2.832-2.265-3.54-8.637-4.672-12.035-2.265-4.106 2.832-6.088 9.345-4.106 14.866zm9.061 63.006c.85-3.115-3.964-7.787-7.504-7.646-2.124 0-7.787 4.814-7.787 6.938 0 3.398 4.389 8.778 8.212 8.92 3.54 0 7.079-3.965 7.221-8.212zM23.733 133.14c-1.84-2.831-3.682-5.663-5.522-8.353-.142-.283-.425-.567-.708-.85-.283-.141-.567-.283-.991-.424h-1.133c-.283 0-.566.283-.85.566-.849.708-1.557 1.416-2.123 2.265-.991 1.416-1.558 2.832-1.84 4.531a13.8 13.8 0 0 0 0 4.814c.282 1.557 1.132 3.115 1.981 4.389a13.6 13.6 0 0 0 3.682 3.257l7.362-10.478zm19.822 90.757c.283 1.133.566 2.265.991 3.398.283.991.991 1.841 1.84 2.407s1.841.85 2.832.85 1.982-.425 2.69-1.133 1.275-1.558 1.558-2.549q.637-1.698.425-3.398c0-1.132-.567-2.265-1.133-3.256-2.265-3.54-6.088-3.54-8.212.141-.425 1.133-.85 2.266-1.133 3.54zM57.997 23.27c2.69-1.983 4.672-4.814 5.663-7.93.567-1.84.566-3.539-1.557-4.388-1.983 1.415-3.398 3.256-4.106 5.522-.708 2.265-.708 4.672 0 6.796"/></svg>
